packages/radix-icons/twoTone/15/arrow-right.svg

<svg width="15" height="15" fill="none" xmlns="http://www.w3.org/2000/svg">
  <path
    fill-rule="evenodd"
    clip-rule="evenodd"
    d="M7.79289 2.79289C8.18342 2.40237 8.81658 2.40237 9.20711 2.79289L13.2071 6.79289C13.5976 7.18342 13.5976 7.81658 13.2071 8.20711L9.20711 12.2071C8.81658 12.5976 8.18342 12.5976 7.79289 12.2071C7.40237 11.8166 7.40237 11.1834 7.79289 10.7929L10.0858 8.5H2.5C1.94772 8.5 1.5 8.05228 1.5 7.5C1.5 6.94772 1.94772 6.5 2.5 6.5H10.0858L7.79289 4.20711C7.40237 3.81658 7.40237 3.18342 7.79289 2.79289Z"
    fill="currentColor"
    opacity=".2"
  />
  <path
    fill-rule="evenodd"
    clip-rule="evenodd"
    d="M8.14645 3.14645C8.34171 2.95118 8.65829 2.95118 8.85355 3.14645L12.8536 7.14645C13.0488 7.34171 13.0488 7.65829 12.8536 7.85355L8.85355 11.8536C8.65829 12.0488 8.34171 12.0488 8.14645 11.8536C7.95118 11.6583 7.95118 11.3417 8.14645 11.1464L11.2929 8H2.5C2.22386 8 2 7.77614 2 7.5C2 7.22386 2.22386 7 2.5 7H11.2929L8.14645 3.85355C7.95118 3.65829 7.95118 3.34171 8.14645 3.14645Z"
    fill="currentColor"
  />
</svg>

<svg width="15" height="15" fill="none" xmlns="http://www.w3.org/2000/svg">
  <path
    fill-rule="evenodd"
    clip-rule="evenodd"
    d="M7.793 2.793a1 1 0 011.414 0l4 4a1 1 0 010 1.414l-4 4a1 1 0 01-1.414-1.414L10.086 8.5H2.5a1 1 0 010-2h7.586L7.793 4.207a1 1 0 010-1.414z"
    fill="currentColor"
    opacity=".2"
  />
  <path
    fill-rule="evenodd"
    clip-rule="evenodd"
    d="M8.146 3.146a.5.5 0 01.708 0l4 4a.5.5 0 010 .708l-4 4a.5.5 0 01-.708-.708L11.293 8H2.5a.5.5 0 010-1h8.793L8.146 3.854a.5.5 0 010-.708z"
    fill="currentColor"
  />
</svg>
